X:1
T:Title
%%score { ( 1 3 ) | ( 2 4 ) }
L:1/8
Q:1/4=108
M:4/4
K:D
V:1 treble nm="Grand Piano"
V:3 treble 
V:2 bass 
V:4 bass 
V:1
 F2 A2 A2 B2 | F4[K:bass] D4[K:treble] | DGGB d2 B2 | [FA]6 z2 | [GB]2 [GB]2 [FA]2 [FA]2 | %5
w: G.~W.~Elderkin * * *|||||
 [EG]2 [EA]2 F4 | Ecc[Fd] [Ac]2 [^GB]2 | A6 z2 | [FA]3 [FA] AABc | [Fd]4 [FA]4 | e3 d cB[CA][CG] | %11
w: ||||||
 F2 G2 A4 | B2 B2 [Ge]4 | c2 c2 d4 | %14
w: |||
 d2 cd fddB[Q:1/4=106][Q:1/4=105][Q:1/4=103][Q:1/4=102][Q:1/4=100][Q:1/4=98][Q:1/4=97][Q:1/4=95][Q:1/4=94][Q:1/4=92][Q:1/4=91][Q:1/4=89][Q:1/4=87][Q:1/4=86][Q:1/4=84][Q:1/4=83] | %15
w: |
 A2 e2 [Fd]4 |] %16
w: |
V:2
 [D,A,D]2 [D,F,D]2 [D,F,D]2 [D,G,D]2 | A,4 z4 | %2
 [G,B,][K:treble][G,B,D][G,B,][G,DG] [G,B,G]2 [G,DG]2 | [D,D]6 z2 | [G,D]2 [G,D]2 [D,D]2 [D,D]2 | %5
 [C,A,]2 [C,A,]2 [D,A,D]4 | [E,A,C][E,A,E][E,A,E][E,A,] [E,E]2 [E,D]2 | [A,C]6 z2 | %8
 [D,D]3 [D,D][K:treble] [A,CG][A,CG][A,DG][A,EG] | [D,D]4 [D,D]4 | %10
 [A,CG]3 [A,DF] [A,EG][A,EG][K:bass][A,,A,][A,,A,] | D2 E2 [DF]4 | [G,DG]2 [G,DG]2 [E,E]4 | %13
 [A,EG]2 [^A,EG]2 [B,DF]4 | [B,E^G]3 [B,EG] AF[A,F]-[A,DF] | [A,CG]2 [A,CG]2[K:bass] [D,D]4 |] %16
V:3
 x8 | z2 C[K:bass][G,CE] F,2[K:treble] =C2 | x8 | x8 | x8 | x8 | x8 | x8 | x8 | x8 | x8 | x8 | x8 | %13
 x8 | x8 | x8 |] %16
V:4
 x8 | [D,D]2 A,,A,, D,4 | x[K:treble] x7 | x8 | x8 | x8 | x8 | x8 | x4[K:treble] x4 | x8 | %10
 x6[K:bass] x2 | [D,-A,]4 D,4 | x8 | x8 | z4 [A,D]2 .E2 | x4[K:bass] x4 |] %16

